src/assets/svg/filter-icon.svg

<svg width="40" height="38" viewBox="0 0 40 38" fill="none" xmlns="http://www.w3.org/2000/svg">
<path fill-rule="evenodd" clip-rule="evenodd" d="M32.8868 23.2015C36.8091 23.2015 40 26.5211 40 30.6008C40 34.6804 36.8091 38 32.8868 38C28.9622 38 25.7691 34.6804 25.7691 30.6008C25.7691 26.5211 28.9622 23.2015 32.8868 23.2015ZM32.8868 26.7864C30.8525 26.7864 29.1977 28.4976 29.1977 30.6008C29.1977 32.7063 30.8525 34.4151 32.8868 34.4151C34.9188 34.4151 36.5714 32.7063 36.5714 30.6008C36.5714 28.4976 34.9188 26.7864 32.8868 26.7864ZM16.1836 28.901C17.1299 28.901 17.8979 29.7041 17.8979 30.6935C17.8979 31.6829 17.1299 32.4859 16.1836 32.4859H1.78127C0.834976 32.4859 0.0669718 31.6829 0.0669718 30.6935C0.0669718 29.7041 0.834976 28.901 1.78127 28.901H16.1836ZM7.11547 0C11.0401 0 14.2309 3.32201 14.2309 7.40164C14.2309 11.4813 11.0401 14.7985 7.11547 14.7985C3.19316 14.7985 0 11.4813 0 7.40164C0 3.32201 3.19316 0 7.11547 0ZM7.11547 3.58491C5.08346 3.58491 3.42859 5.2961 3.42859 7.40164C3.42859 9.50478 5.08346 11.2136 7.11547 11.2136C9.14977 11.2136 10.8023 9.50478 10.8023 7.40164C10.8023 5.2961 9.14977 3.58491 7.11547 3.58491ZM37.0084 5.7368C37.9547 5.7368 38.7227 6.53982 38.7227 7.52926C38.7227 8.51869 37.9547 9.32171 37.0084 9.32171H22.6084C21.6621 9.32171 20.8941 8.51869 20.8941 7.52926C20.8941 6.53982 21.6621 5.7368 22.6084 5.7368H37.0084Z" fill="#00C700"/>
</svg>

<svg xmlns="http://www.w3.org/2000/svg" width="40" height="38" fill="none"><path fill="#00C700" fill-rule="evenodd" d="M32.887 23.202c3.922 0 7.113 3.32 7.113 7.399S36.81 38 32.887 38c-3.925 0-7.118-3.32-7.118-7.4 0-4.079 3.193-7.399 7.118-7.399m0 3.584c-2.035 0-3.69 1.712-3.69 3.815 0 2.105 1.656 3.814 3.69 3.814 2.032 0 3.684-1.709 3.684-3.814 0-2.103-1.652-3.815-3.684-3.815M16.184 28.9c.946 0 1.714.803 1.714 1.793s-.768 1.792-1.714 1.792H1.78c-.946 0-1.714-.803-1.714-1.792 0-.99.768-1.793 1.714-1.793zM7.115 0c3.925 0 7.116 3.322 7.116 7.402s-3.19 7.397-7.116 7.397C3.193 14.799 0 11.48 0 7.402S3.193 0 7.115 0m0 3.585c-2.032 0-3.686 1.711-3.686 3.817 0 2.103 1.654 3.812 3.686 3.812 2.035 0 3.687-1.71 3.687-3.812 0-2.106-1.652-3.817-3.687-3.817m29.893 2.152c.947 0 1.715.803 1.715 1.792 0 .99-.768 1.793-1.715 1.793h-14.4c-.946 0-1.714-.803-1.714-1.793s.768-1.792 1.714-1.792z" clip-rule="evenodd"/></svg>
